components/ui-node-icon/src/gptNode/gptNode.medium.svg

<svg width="24" height="24" viewBox="0 0 24 24" fill="none" xmlns="http://www.w3.org/2000/svg">
  <path fill-rule="evenodd" clip-rule="evenodd" d="M22 5C22 3.89543 21.1046 3 20 3H4C2.89543 3 2 3.89543 2 5V19C2 20.1046 2.89543 21 4 21L14.873 21C14.6958 20.314 14.338 19.6811 13.8284 19.1716C13.0783 18.4214 12.0609 18 11 18C10.4696 18 9.96086 17.7893 9.58579 17.4142C9.21071 17.0391 9 16.5304 9 16C9 15.4696 9.21071 14.9609 9.58579 14.5858C9.96086 14.2107 10.4696 14 11 14C12.0609 14 13.0783 13.5786 13.8284 12.8284C14.5786 12.0783 15 11.0609 15 10C15 9.46957 15.2107 8.96086 15.5858 8.58579C15.9609 8.21071 16.4696 8 17 8C17.5304 8 18.0391 8.21071 18.4142 8.58579C18.7893 8.96086 19 9.46957 19 10C19 11.0609 19.4214 12.0783 20.1716 12.8284C20.6811 13.338 21.314 13.6958 22 13.873V5ZM22 14.899V17.101C21.0466 17.2956 20.1628 17.7661 19.4645 18.4645C18.7661 19.1628 18.2956 20.0466 18.101 21H15.899C15.7044 20.0466 15.2339 19.1628 14.5355 18.4645C13.5979 17.5268 12.3261 17 11 17C10.7348 17 10.4804 16.8946 10.2929 16.7071C10.1054 16.5196 10 16.2652 10 16C10 15.7348 10.1054 15.4804 10.2929 15.2929C10.4804 15.1054 10.7348 15 11 15C12.3261 15 13.5979 14.4732 14.5355 13.5355C15.4732 12.5979 16 11.3261 16 10C16 9.73478 16.1054 9.48043 16.2929 9.29289C16.4804 9.10536 16.7348 9 17 9C17.2652 9 17.5196 9.10536 17.7071 9.29289C17.8946 9.48043 18 9.73478 18 10C18 11.3261 18.5268 12.5979 19.4645 13.5355C20.1628 14.2339 21.0466 14.7044 22 14.899ZM19.127 21C19.3042 20.314 19.662 19.6811 20.1716 19.1716C20.6811 18.662 21.314 18.3042 22 18.127V19C22 20.1046 21.1046 21 20 21H19.127Z" fill="url(#paint0_linear_2836_1383)"/>
  <path d="M2 5C2 3.89543 2.89543 3 4 3H20C21.1046 3 22 3.89543 22 5V6H2V5Z" fill="url(#paint1_linear_2836_1383)"/>
  <path d="M24 16C24 16.2652 23.8946 16.5196 23.7071 16.7071C23.5196 16.8946 23.2652 17 23 17C21.6739 17 20.4021 17.5268 19.4645 18.4645C18.5268 19.4021 18 20.6739 18 22C18 22.2652 17.8946 22.5196 17.7071 22.7071C17.5196 22.8946 17.2652 23 17 23C16.7348 23 16.4804 22.8946 16.2929 22.7071C16.1054 22.5196 16 22.2652 16 22C16 20.6739 15.4732 19.4021 14.5355 18.4645C13.5979 17.5268 12.3261 17 11 17C10.7348 17 10.4804 16.8946 10.2929 16.7071C10.1054 16.5196 10 16.2652 10 16C10 15.7348 10.1054 15.4804 10.2929 15.2929C10.4804 15.1054 10.7348 15 11 15C12.3261 15 13.5979 14.4732 14.5355 13.5355C15.4732 12.5979 16 11.3261 16 10C16 9.73478 16.1054 9.48043 16.2929 9.29289C16.4804 9.10536 16.7348 9 17 9C17.2652 9 17.5196 9.10536 17.7071 9.29289C17.8946 9.48043 18 9.73478 18 10C18 11.3261 18.5268 12.5979 19.4645 13.5355C20.4021 14.4732 21.6739 15 23 15C23.2652 15 23.5196 15.1054 23.7071 15.2929C23.8946 15.4804 24 15.7348 24 16Z" fill="url(#paint2_linear_2836_1383)"/>
  <defs>
    <linearGradient id="paint0_linear_2836_1383" x1="12" y1="3" x2="12" y2="21" gradientUnits="userSpaceOnUse">
      <stop stop-color="var(--tbl--colors--icons--ai--secondary--from)"/>
      <stop offset="1" stop-color="var(--tbl--colors--icons--ai--secondary--to)"/>
    </linearGradient>
    <linearGradient id="paint1_linear_2836_1383" x1="2" y1="6" x2="22" y2="6" gradientUnits="userSpaceOnUse">
      <stop stop-color="var(--tbl--colors--icons--ai--primary--from)"/>
      <stop offset="1" stop-color="var(--tbl--colors--icons--ai--primary--to)"/>
    </linearGradient>
    <linearGradient id="paint2_linear_2836_1383" x1="10" y1="23" x2="24" y2="23" gradientUnits="userSpaceOnUse">
      <stop stop-color="var(--tbl--colors--icons--ai--primary--from)"/>
      <stop offset="1" stop-color="var(--tbl--colors--icons--ai--primary--to)"/>
    </linearGradient>
  </defs>
</svg>

<svg xmlns="http://www.w3.org/2000/svg" width="24" height="24" fill="none" viewBox="0 0 24 24">
  <path fill="url(#a)" fill-rule="evenodd" d="M22 5a2 2 0 0 0-2-2H4a2 2 0 0 0-2 2v14a2 2 0 0 0 2 2h10.873A4 4 0 0 0 11 18a2 2 0 1 1 0-4 4 4 0 0 0 4-4 2 2 0 1 1 4 0 4 4 0 0 0 3 3.873V5Zm0 9.899v2.202A5 5 0 0 0 18.101 21h-2.202A5 5 0 0 0 11 17a1 1 0 0 1 0-2 5 5 0 0 0 5-5 1 1 0 0 1 2 0 5 5 0 0 0 4 4.899ZM19.127 21A4 4 0 0 1 22 18.127V19a2 2 0 0 1-2 2h-.873Z" clip-rule="evenodd"/>
  <path fill="url(#b)" d="M2 5a2 2 0 0 1 2-2h16a2 2 0 0 1 2 2v1H2V5Z"/>
  <path fill="url(#c)" d="M24 16a1 1 0 0 1-1 1 5 5 0 0 0-5 5 1 1 0 0 1-2 0 5 5 0 0 0-5-5 1 1 0 0 1 0-2 5 5 0 0 0 5-5 1 1 0 0 1 2 0 5 5 0 0 0 5 5 1 1 0 0 1 1 1Z"/>
  <defs>
    <linearGradient id="a" x1="12" x2="12" y1="3" y2="21" gradientUnits="userSpaceOnUse">
      <stop stop-color="var(--tbl--colors--icons--ai--secondary--from)"/>
      <stop offset="1" stop-color="var(--tbl--colors--icons--ai--secondary--to)"/>
    </linearGradient>
    <linearGradient id="b" x1="2" x2="22" y1="6" y2="6" gradientUnits="userSpaceOnUse">
      <stop stop-color="var(--tbl--colors--icons--ai--primary--from)"/>
      <stop offset="1" stop-color="var(--tbl--colors--icons--ai--primary--to)"/>
    </linearGradient>
    <linearGradient id="c" x1="10" x2="24" y1="23" y2="23" gradientUnits="userSpaceOnUse">
      <stop stop-color="var(--tbl--colors--icons--ai--primary--from)"/>
      <stop offset="1" stop-color="var(--tbl--colors--icons--ai--primary--to)"/>
    </linearGradient>
  </defs>
</svg>
